X:1
T:Title
%%score ( 1 2 ) 3
L:1/8
Q:1/4=87
M:3/4
K:Ab
V:1 treble nm="Grand Piano, Soprano"
V:2 treble 
V:3 bass nm="Choir Pad, Grand Saline, W. J. Ramsay"
V:1
 [CE][CE] [A,C] [CF]3 | [CE][CE] [CA] [DG]3 | [CA][DB] [CA] [B,G]3 | [DF][B,D] [DF] [CE]3 | %4
w: By~William~J.~Ramsay,~1912 * * *||||
 [CE][A,C] [CE] [Ec]3 | [DB][CA] [CE] [DF]3 | [FB][FA] [DF] [CE]3 | [Ec][Ec]/[DB]/- [DB] [CA]3 | %8
w: ||||
 z2 z A3 | [_Gc]B/A/- A/[DF]/ [CE]3 | [CE][EA] [Ec] [Ae]3 | [Ed][Ec]- [Ec]/[=DA]/ [_DB]3 | %12
w: ||||
 z2 z A3 | [Ec][GB] [_Gc] [Fd]3 | [Af][Ae]- [Ae]/[Ac]/ [Ae]3 | [Ec][=DA]/[_DB]/- [DB] [CA]3- | %16
w: ||||
 [CA]4 z2 |] %17
w: |
V:2
 x6 | x6 | x6 | x6 | x6 | x6 | x6 | x6 | [CE][Ec]- [Ec]/[DB]/C DC | z .F3 z2 | x6 | x6 | %12
 [CE][Ec]- [Ec]/[DB]/C DC | x6 | x6 | x6 | x6 |] %17
V:3
 z2 z A,, E,A,- | A, E,2 B,, E,D | z2 z E,, E,E,- | E, E,2 A,, E,A, | z2 z C, E,A,- | %5
 A, E,2 D, F,A, | z2 z E,, [E,A,][E,A,]- | [E,A,] [E,G,]2 [A,,A,] E,A,, | %8
 z2 z/ [E,G,]/[A,,A,] [A,,F,][A,,E,] | [A,,A,][D,A,]- [D,A,]/[F,A,]/ A,3 | %10
 [A,,A,][C,A,] [E,A,] [A,C]3 | A,A,- A,/[F,B,]/ [E,G,]3 | z2 z/ [E,G,]/[A,,A,] [A,,F,][A,,E,] | %13
 A,A, A, [D,A,]3 | [D,D][E,C]- [E,C]/[E,E]/ [E,D]3 | [E,A,][F,A,]/[E,G,]/- [E,G,] [A,,E,]3- | %16
 [A,,E,]4 z2 |] %17

